X: 15572
T: Glory
R: reel
M: 4/4
K: Gmajor
|:G2BG dGBG|G/G/G BG AFDF|G2BG dGBG|c/c/c Bc AFDF:|
|:E6 cA|BGEB AFDF|E2~E2 E2cA|1 BdcB AFDF:|2 BdcB AFDf||
|:gagf e^def|g2fg e^cAf|gagf eaaf|1 g2fg e^cAf:|2 g2 fg e^cAF||

